X: 419
T: Yellow legs
C:anon.
O:Ireland
B:Francis O'Neill: "The Dance Music of Ireland" (1907) no. 419
R:Hop, slip jig
Z:Transcribed by Frank Nordberg - http://www.musicaviva.com
F:http://www.musicaviva.com/abc/tunes/ireland/oneill-1001/oneill-1001-041
9.abc
M:9/8
L:1/8
K:D
FEF DED FED|FEF DED GEC|FEF DED FED|EFE cBA GEC::FDF A2d A2d|
FDF A2d GEC|FDF A2d AGF|EGE cBA GEC::fef dfd g2e|fef dfa gec|faf ged c2A|


